X:2624
T:Captain Kelly
Z: id:dc-reel-363
M:C
L:1/8
K:G Major
B|GBAB G2ge|dBAc BEEF|GBAB G2ge|dBAc BGGF|!
GABd g2fe|dBAc BEEF|GABd g2fe|dBAc BGG|]!
f|g2bg agbg|egdg egde|g2bg agbg|egfa g2de|!
g3f gbag|fdad bdad|gafg efde|fgaf ged|]!


